!!!COM: Vivaldi, Antonio
!!!OTL: Concerto a violino solo, No. 4
!!!XEN: Violin Concerto No. 4
!!!OTP: L'Inverno
!!!OTA: The Four Seasons, Winter
!!!OPR: Il Cimento dell'armonia e dell'inventione
!!!XEN: The Contest of Harmony and Invention
!!!OPS: Opus 8
!!!ONM: No. 4
!!!OMV: Movement 3.
!!!YEC: Copyright 1996, Center for Computer Assisted Research in the Humanities
!!!YEM: Rights to all derivative electronic formats reserved.
!!!YEM: Refer to licensing agreement for important restrictions.
!!!OMD: Allegro
**kern	**kern	**kern	**kern	**kern	**Bnum
*Icello	*Iviola	*Ivioln	*Ivioln	*Ivioln	*Icemba
*Icemba	*	*	*	*	*
*ICstr	*ICstr	*ICstr	*ICstr	*ICstr	*ICklav
*ICklav	*	*	*	*	*
!cello	!viola 	!violino 2	!violino 1	!violino principale	!continuo
!basso continuo	!	!	!	!	!
*clefF4	*clefC3	*clefG2	*clefG2	*clefG2	*
*k[b-e-a-d-]	*k[b-e-a-d-]	*k[b-e-a-d-]	*k[b-e-a-d-]	*k[b-e-a-d-]	*k[b-e-a-d-]
*f:	*f:	*f:	*f:	*f:	*f:
*M3/8	*M3/8	*M3/8	*M3/8	*M3/8	*M3/8
*>Selfridge-Field[etc1,S30,etc2,S42,etc3,S84,etc4,S138,etc5,S146,etc6]	*>Selfridge-Field[etc1,S30,etc2,S42,etc3,S84,etc4,S138,etc5,S146,etc6]	*>Selfridge-Field[etc1,S30,etc2,S42,etc3,S84,etc4,S138,etc5,S146,etc6]	*>Selfridge-Field[etc1,S30,etc2,S42,etc3,S84,etc4,S138,etc5,S146,etc6]	*>Selfridge-Field[etc1,S30,etc2,S42,etc3,S84,etc4,S138,etc5,S146,etc6]	*>Selfridge-Field[etc1,S30,etc2,S42,etc3,S84,etc4,S138,etc5,S146,etc6]
*>Manchester[etc1,M30,etc2,M42,etc3,S84,etc4,S138,etc5,S146,etc6]	*>Manchester[etc1,M30,etc2,M42,etc3,S84,etc4,S138,etc5,S146,etc6]	*>Manchester[etc1,M30,etc2,M42,etc3,S84,etc4,S138,etc5,S146,etc6]	*>Manchester[etc1,M30,etc2,M42,etc3,S84,etc4,S138,etc5,S146,etc6]	*>Manchester[etc1,M30,etc2,M42,etc3,S84,etc4,S138,etc5,S146,etc6]	*>Manchester[etc1,M30,etc2,M42,etc3,S84,etc4,S138,etc5,S146,etc6]
*>Amsterdam[etc1,S30,etc2,S42,etc3,A84,etc4,A138,etc5,A146,etc6]	*>Amsterdam[etc1,S30,etc2,S42,etc3,A84,etc4,A138,etc5,A146,etc6]	*>Amsterdam[etc1,S30,etc2,S42,etc3,A84,etc4,A138,etc5,A146,etc6]	*>Amsterdam[etc1,S30,etc2,S42,etc3,A84,etc4,A138,etc5,A146,etc6]	*>Amsterdam[etc1,S30,etc2,S42,etc3,A84,etc4,A138,etc5,A146,etc6]	*>Amsterdam[etc1,S30,etc2,S42,etc3,A84,etc4,A138,etc5,A146,etc6]
*>etc1	*>etc1	*>etc1	*>etc1	*>etc1	*>etc1
=1-	=1-	=1-	=1-	=1-	=1-
! Arcate lunghe, e tasto solo 	!	!	!	!	!
[4.F\	4.r	4.r	4.r	(16cc\LL	.
.	.	.	.	16aa-\	.
.	.	.	.	16gg\	.
.	.	.	.	16ff\	.
.	.	.	.	16een\	.
.	.	.	.	16ff\JJ)	.
=2	=2	=2	=2	=2	=2
4.F_\	4.r	4.r	4.r	(16cc\LL	.
.	.	.	.	16aa-\	.
.	.	.	.	16gg\	.
.	.	.	.	16ff\	.
.	.	.	.	16een\	.
.	.	.	.	16ff\JJ)	.
=3	=3	=3	=3	=3	=3
4.F_\	4.r	4.r	4.r	(16cc\LL	.
.	.	.	.	16aa-\	.
.	.	.	.	16gg\	.
.	.	.	.	16ff\	.
.	.	.	.	16een\	.
.	.	.	.	16ff\JJ)	.
=4	=4	=4	=4	=4	=4
4.F_\	4.r	4.r	4.r	(16cc\LL	.
.	.	.	.	16aa-\	.
.	.	.	.	16gg\	.
.	.	.	.	16ff\	.
.	.	.	.	16een\	.
.	.	.	.	16ff\JJ)	.
=5	=5	=5	=5	=5	=5
4.F_\	4.r	4.r	4.r	16cc\LL	.
.	.	.	.	16dd-\	.
.	.	.	.	16cc\	.
.	.	.	.	16b-\	.
.	.	.	.	16cc\	.
.	.	.	.	16dd-\JJ	.
=6	=6	=6	=6	=6	=6
4.F_\	4.r	4.r	4.r	16f\LL	.
.	.	.	.	16dd-\	.
.	.	.	.	16cc\	.
.	.	.	.	16b-\	.
.	.	.	.	16cc\	.
.	.	.	.	16dd-\JJ	.
=7	=7	=7	=7	=7	=7
4.F_\	4.r	4.r	4.r	16f\LL	.
.	.	.	.	16dd-\	.
.	.	.	.	16cc\	.
.	.	.	.	16b-\	.
.	.	.	.	16cc\	.
.	.	.	.	16dd-\JJ	.
=8	=8	=8	=8	=8	=8
4.F_\	4.r	4.r	4.r	16f\LL	.
.	.	.	.	16dd-\	.
.	.	.	.	16cc\	.
.	.	.	.	16b-\	.
.	.	.	.	16cc\	.
.	.	.	.	16dd-\JJ	.
=9	=9	=9	=9	=9	=9
4.F_\	4.r	4.r	4.r	16f/LL	.
.	.	.	.	16g/	.
.	.	.	.	16a-/	.
.	.	.	.	16g/	.
.	.	.	.	16a-/	.
.	.	.	.	16f/JJ	.
=10	=10	=10	=10	=10	=10
4.F_\	4.r	4.r	4.r	16cc\LL	.
.	.	.	.	16dd-\	.
.	.	.	.	16ee-\	.
.	.	.	.	16dd-\	.
.	.	.	.	16ee-\	.
.	.	.	.	16cc\JJ	.
=11	=11	=11	=11	=11	=11
4.F_\	4.r	4.r	4.r	16ff\LL	.
.	.	.	.	16gg\	.
.	.	.	.	16aa-\	.
.	.	.	.	16gg\	.
.	.	.	.	16aa-\	.
.	.	.	.	16ff\JJ	.
=12	=12	=12	=12	=12	=12
4.F_\	4.r	4.r	4.r	16aa-\LL	.
.	.	.	.	16ccc\	.
.	.	.	.	16bb-\	.
.	.	.	.	16aa-\	.
.	.	.	.	16bb-\	.
.	.	.	.	16ccc\JJ	.
=13	=13	=13	=13	=13	=13
4.F_\	4.r	4.r	4.r	16ff\LL	.
.	.	.	.	16ccc\	.
.	.	.	.	16bb-\	.
.	.	.	.	16aa-\	.
.	.	.	.	16bb-\	.
.	.	.	.	16ccc\JJ	.
=14	=14	=14	=14	=14	=14
4.F_\	4.r	4.r	4.r	16ff\LL	.
.	.	.	.	16ddd-\	.
.	.	.	.	16ccc\	.
.	.	.	.	16bb-\	.
.	.	.	.	16ccc\	.
.	.	.	.	16ddd-\JJ	.
=15	=15	=15	=15	=15	=15
4.F_\	4.r	4.r	4.r	16ff\LL	.
.	.	.	.	16ddd-\	.
.	.	.	.	16ccc\	.
.	.	.	.	16bb-\	.
.	.	.	.	16ccc\	.
.	.	.	.	16ddd-\JJ	.
=16	=16	=16	=16	=16	=16
4.F_\	4.r	4.r	4.r	16ff\LL	.
.	.	.	.	16ccc\	.
.	.	.	.	16bb-\	.
.	.	.	.	16aa-\	.
.	.	.	.	16bb-\	.
.	.	.	.	16ccc\JJ	.
=17	=17	=17	=17	=17	=17
4.F_\	4.r	4.r	4.r	16ff\LL	.
.	.	.	.	16ccc\	.
.	.	.	.	16bb-\	.
.	.	.	.	16aa-\	.
.	.	.	.	16bb-\	.
.	.	.	.	16ccc\JJ	.
=18	=18	=18	=18	=18	=18
4.F_\	4.r	4.r	4.r	16ff\LL	.
.	.	.	.	16ddd-\	.
.	.	.	.	16ccc\	.
.	.	.	.	16bb-\	.
.	.	.	.	16ccc\	.
.	.	.	.	16ddd-\JJ	.
=19	=19	=19	=19	=19	=19
4.F_\	4.r	4.r	4.r	16ff\LL	.
.	.	.	.	16ddd-\	.
.	.	.	.	16ccc\	.
.	.	.	.	16bb-\	.
.	.	.	.	16ccc\	.
.	.	.	.	16ddd-\JJ	.
=20	=20	=20	=20	=20	=20
4.F\]	4.r	4.r	4.r	8ccc\L	.
.	.	.	.	8ff\J	.
.	.	.	.	8r	.
=21	=21	=21	=21	=21	=21
! Tasto solo	!	!	!	!	!
[4.C/	[4.e\	4.r	(16bb-\LL	(16bb-\LL	.
.	.	.	16aa-\	16aa-\	.
.	.	.	16gg\	16gg\	.
.	.	.	16ff\	16ff\	.
.	.	.	16een\	16een\	.
.	.	.	16ddn\JJ)	16ddn\JJ)	.
=22	=22	=22	=22	=22	=22
4.C_/	4.e_\	(16bb-\LL	(16cc\LL	(16cc\LL	.
.	.	16aa-\	16ddn\	16ddn\	.
.	.	16gg\	16een\	16een\	.
.	.	16ff\	16ff\	16ff\	.
.	.	16een\	16gg\	16gg\	.
.	.	16ddn\JJ)	16aa-\JJ)	16aa-\JJ)	.
=23	=23	=23	=23	=23	=23
4.C_/	4.e_\	(16cc\LL	(16bb-\LL	(16bb-\LL	.
.	.	16ddn\	16aa-\	16aa-\	.
.	.	16een\	16gg\	16gg\	.
.	.	16ff\	16ff\	16ff\	.
.	.	16gg\	16een\	16een\	.
.	.	16aa-\JJ)	16ddn\JJ)	16ddn\JJ)	.
=24	=24	=24	=24	=24	=24
4.C_/	4.e\]	(16bb-\LL	(16cc\LL	(16cc\LL	.
.	.	16aa-\	16ddn\	16ddn\	.
.	.	16gg\	16een\	16een\	.
.	.	16ff\	16ff\	16ff\	.
.	.	16een\	16gg\	16gg\	.
.	.	16ddn\JJ)	16aa-\JJ)	16aa-\JJ)	.
=25	=25	=25	=25	=25	=25
4.C_/	4.g\	(8een\L	(8bb-\L	(8bb-\L	.
.	.	8gg\	8aa-\	8aa-\	.
.	.	8bb-\J)	8gg\J)	8gg\J)	.
=26	=26	=26	=26	=26	=26
4.C_/	4.f\	(8ccc\L	(8aa-\L	(8aa-\L	.
.	.	8bb-\	8gg\	8gg\	.
.	.	8aa-\J)	8ff\J)	8ff\J)	.
=27	=27	=27	=27	=27	=27
4.C_/	(8en\L	(8gg\L	(8bb-\L	(8bb-\L	.
.	8f\	8ff\	8aa-\	8aa-\	.
.	8g\J)	8een\J)	8gg\J)	8gg\J)	.
=28	=28	=28	=28	=28	=28
4.C_/	4.f\	(8ccc\L	(8aa-\L	(8aa-\L	.
.	.	8bb-\	8gg\	8gg\	.
.	.	8aa-\J)	8ff\J)	8ff\J)	.
=29	=29	=29	=29	=29	=29
4.C_/	(8en\L	(8gg\L	(8bb-\L	(8bb-\L	.
.	8f\	8ff\	8aa-\	8aa-\	.
.	8g\J)	8een\J)	8gg\J)	8gg\J)	.
*>S30	*>S30	*>S30	*>S30	*>S30	*>S30
!! Selfridge-Field edition.
=30	=30	=30	=30	=30	=30
4.C_/	(8f`\L	(8ff`\L	(8aa-\L	(8aa-\L	.
.	8f`\	8ff`\	8aa-\	8aa-\	.
.	8f`\J)	8ff`\J)	8aa-\J)	8aa-\J)	.
=31	=31	=31	=31	=31	=31
4.C_/	(8e-`\L	(8ff`\L	(8aan\L	(8aan\L	.
.	8e-`\	8ff`\	8aa\	8aa\	.
.	8e-`\J)	8ff`\J)	8aa\J)	8aa\J)	.
=32	=32	=32	=32	=32	=32
4.C_/	(8d-`\L	(8ff`\L	(8bb-\L	(8bb-\L	.
.	8d-`\	8ff`\	8bb-\	8bb-\	.
.	8d-`\J)	8ff`\J)	8bb-\J)	8bb-\J)	.
=33	=33	=33	=33	=33	=33
4.C_/	(8d-`\L	(8ff`\L	(8bbn'\L	(8bbn\L	.
.	8d-`\	8ff`\	8bb'\	8bb\	.
.	8d-`\J)	8ff`\J)	8bb'\J)	8bb\J)	.
=34	=34	=34	=34	=34	=34
4.C_/	(8c`\L	(8een`\L	(8ccc`\L	(8ccc`\L	.
.	8cc`\	8cc`\	8ccc`\	8ccc`\	.
.	8cc`\J)	8cc`\J)	8ccc`\J)	8ccc`\J)	.
=35	=35	=35	=35	=35	=35
4.C_/	(8b-`\L	(8dd-`\L	(8ccc`\L	(8ccc`\L	.
.	8b-`\	8dd-`\	8ccc`\	8ccc`\	.
.	8b-`\J)	8dd-`\J)	8ccc`\J)	8ccc`\J)	.
=36	=36	=36	=36	=36	=36
4.C_/	(8a-`\L	(8ddn`\L	(8ccc`\L	(8ccc`\L	.
.	8a-`\	8dd`\	8ccc`\	8ccc`\	.
.	8a-`\J)	8dd`\J)	8ccc`\J)	8ccc`\J)	.
=37	=37	=37	=37	=37	=37
4.C_/	(8g`\L	(8ee-`\L	(8ccc`\L	(8ccc`\L	.
.	8g`\	8ee-`\	8ccc`\	8ccc`\	.
.	8g`\J)	8ee-`\J)	8ccc`\J)	8ccc`\J)	.
=38	=38	=38	=38	=38	=38
4.C_/	(8g\L	(8een\L	(8bb-'\L	(8bb-'\L	.
.	8g\	8ee\	8bb-'\	8bb-'\	.
.	8e\J)	8ee\J)	8bb-'\J)	8bb-'\J)	.
*>M30	*>M30	*>M30	*>M30	*>M30	*>M30
!! Manchester partbooks.
=30	=30	=30	=30	=30	=30
4.C_/	(8f'\L	(8ff'\L	(8aa-\L	(8aa-\L	.
.	8f'\	8ff'\	8aa-\	8aa-\	.
.	8f'\J)	8ff'\J)	8aa-\J)	8aa-\J)	.
=31	=31	=31	=31	=31	=31
4.C_/	(8e-'\L	(8ff'\L	(8aan\L	(8aan\L	.
.	8e-'\	8ff'\	8aa\	8aa\	.
.	8e-'\J)	8ff'\J)	8aa\J)	8aa\J)	.
=32	=32	=32	=32	=32	=32
4.C_/	(8d-'\L	(8ff'\L	(8bb-\L	(8bb-\L	.
.	8d-'\	8ff'\	8bb-\	8bb-\	.
.	8d-'\J)	8ff'\J)	8bb-\J)	8bb-\J)	.
=33	=33	=33	=33	=33	=33
4.C_/	(8d-'\L	(8ff'\L	(8bbn'\L	(8bbn\L	.
.	8d-'\	8ff'\	8bb'\	8bb\	.
.	8d-'\J)	8ff'\J)	8bb'\J)	8bb\J)	.
=34	=34	=34	=34	=34	=34
4.C_/	(8c'\L	(8een'\L	(8ccc'\L	(8ccc'\L	.
.	8cc'\	8cc'\	8ccc'\	8ccc'\	.
.	8cc'\J)	8cc'\J)	8ccc'\J)	8ccc'\J)	.
=35	=35	=35	=35	=35	=35
4.C_/	(8b-'\L	(8dd-'\L	(8ccc'\L	(8ccc'\L	.
.	8b-'\	8dd-'\	8ccc'\	8ccc'\	.
.	8b-'\J)	8dd-'\J)	8ccc'\J)	8ccc'\J)	.
=36	=36	=36	=36	=36	=36
4.C_/	(8a-'\L	(8ddn'\L	(8ccc'\L	(8ccc'\L	.
.	8a-'\	8dd'\	8ccc'\	8ccc'\	.
.	8a-'\J)	8dd'\J)	8ccc'\J)	8ccc'\J)	.
=37	=37	=37	=37	=37	=37
4.C_/	(8g'\L	(8ee-'\L	(8ccc'\L	(8ccc'\L	.
.	8g'\	8ee-'\	8ccc'\	8ccc'\	.
.	8g'\J)	8ee-'\J)	8ccc'\J)	8ccc'\J)	.
=38	=38	=38	=38	=38	=38
4.C_/	(8g\L	(8een\L	(8bb-'\L	(8bb-'\L	.
.	8g\	8ee\	8bb-'\	8bb-'\	.
.	8e\J)	8ee\J)	8bb-'\J)	8bb-'\J)	.
*>etc2	*>etc2	*>etc2	*>etc2	*>etc2	*>etc2
=38	=38	=38	=38	=38	=38
4.C_/	(8g\L	(8een\L	(8bb-'\L	(8bb-'\L	.
.	8g\	8ee\	8bb-'\	8bb-'\	.
.	8e\J)	8ee\J)	8bb-'\J)	8bb-'\J)	.
=39	=39	=39	=39	=39	=39
4.C_/	[4.c\	4ff\	4aa-\	4aa-\	.
.	.	8r	8r	8r	.
=40	=40	=40	=40	=40	=40
4.C_/	4.c_\	16ff\LL	16aa-\LL	16aa-\LL	.
.	.	16ee-\	16gg\	16gg\	.
.	.	16dd-\	16ff\	16ff\	.
.	.	16cc\	16ee-\	16ee-\	.
.	.	16b-\	16dd-\	16dd-\	.
.	.	16a-\JJ	16cc\JJ	16cc\JJ	.
=41	=41	=41	=41	=41	=41
4.C_/	4.c\]	16g/LL	16b-/LL	16b-/LL	.
.	.	16f/	16a-/	16a-/	.
.	.	16en/	16g/	16g/	.
.	.	16dn/J	16f/J	16f/J	.
.	.	8c/J	8en/J	8en/J	.
*>S42	*>S42	*>S42	*>S42	*>S42	*>S42
!! Selfridge-Field edition.
=42	=42	=42	=42	=42	=42
4.C_/	(8en`\L	(8bb-`\L	(32gg\LLL	(32gg\LLL	.
.	.	.	32ff\	32ff\	.
.	.	.	32een\	32een\	.
.	.	.	32ddn\JJ)	32ddn\JJ)	.
.	8e`\	8bb-`\	8cc\J	8cc\J	.
.	8e`\J)	8bb-`\J)	8r	8r	.
=43	=43	=43	=43	=43	=43
4.C_/	(8en`\L	(8bb-`\L	(32gg\LLL	(32gg\LLL	.
.	.	.	32ff\	32ff\	.
.	.	.	32een\	32een\	.
.	.	.	32ddn\JJ)	32ddn\JJ)	.
.	8e`\	8bb-`\	8cc\J	8cc\J	.
.	8e`\J)	8bb-`\J)	8r	8r	.
=44	=44	=44	=44	=44	=44
4.C_/	(8f`\L	(8aa-`\L	(32ccc\LLL	(32ccc\LLL	.
.	.	.	32bb-\	32bb-\	.
.	.	.	32aa-\	32aa-\	.
.	.	.	32gg\JJ)	32gg\JJ)	.
.	8f`\	8aa-`\	8ff\J	8ff\J	.
.	8f`\J)	8aa-`\J)	8r	8r	.
=45	=45	=45	=45	=45	=45
4.C_/	(8f`\L	(8aa-`\L	(32ccc\LLL	(32ccc\LLL	.
.	.	.	32bb-\	32bb-\	.
.	.	.	32aa-\	32aa-\	.
.	.	.	32gg\JJ)	32gg\JJ)	.
.	8f`\	8aa-`\	8ff\J	8ff\J	.
.	8f`\J)	8aa-`\J)	8r	8r	.
=46	=46	=46	=46	=46	=46
4.C_/	(8f`\L	(8gg`\L	(32bb-\LLL	(32bb-\LLL	.
.	.	.	32aa-\	32aa-\	.
.	.	.	32gg\	32gg\	.
.	.	.	32ff\JJ)	32ff\JJ)	.
.	8f`\	8gg`\	8een\J	8een\J	.
.	8f`\J)	8gg`\J)	8r	8r	.
=47	=47	=47	=47	=47	=47
4.C/]	(8en`\L	(8gg`\L	(32bb-\LLL	(32bb-\LLL	.
.	.	.	32aa-\	32aa-\	.
.	.	.	32gg\	32gg\	.
.	.	.	32ff\JJ)	32ff\JJ)	.
.	8e`\	8gg`\	8een\J	8een\J	.
.	8e`\J)	8gg`\J)	8r	8r	.
*>M42	*>M42	*>M42	*>M42	*>M42	*>M42
!! Manchester partbooks.
=42	=42	=42	=42	=42	=42
4.C_/	(8en'\L	(8bb-'\L	(32gg\LLL	(32gg\LLL	.
.	.	.	32ff\	32ff\	.
.	.	.	32een\	32een\	.
.	.	.	32ddn\JJ)	32ddn\JJ)	.
.	8e'\	8bb-'\	8cc\J	8cc\J	.
.	8e'\J)	8bb-'\J)	8r	8r	.
=43	=43	=43	=43	=43	=43
4.C_/	(8en'\L	(8bb-'\L	(32gg\LLL	(32gg\LLL	.
.	.	.	32ff\	32ff\	.
.	.	.	32een\	32een\	.
.	.	.	32ddn\JJ)	32ddn\JJ)	.
.	8e'\	8bb-'\	8cc\J	8cc\J	.
.	8e'\J)	8bb-'\J)	8r	8r	.
=44	=44	=44	=44	=44	=44
4.C_/	(8f'\L	(8aa-'\L	(32ccc\LLL	(32ccc\LLL	.
.	.	.	32bb-\	32bb-\	.
.	.	.	32aa-\	32aa-\	.
.	.	.	32gg\JJ)	32gg\JJ)	.
.	8f'\	8aa-'\	8ff\J	8ff\J	.
.	8f'\J)	8aa-'\J)	8r	8r	.
=45	=45	=45	=45	=45	=45
4.C_/	(8f'\L	(8aa-'\L	(32ccc\LLL	(32ccc\LLL	.
.	.	.	32bb-\	32bb-\	.
.	.	.	32aa-\	32aa-\	.
.	.	.	32gg\JJ)	32gg\JJ)	.
.	8f'\	8aa-'\	8ff\J	8ff\J	.
.	8f'\J)	8aa-'\J)	8r	8r	.
=46	=46	=46	=46	=46	=46
4.C_/	(8f'\L	(8gg'\L	(32bb-\LLL	(32bb-\LLL	.
.	.	.	32aa-\	32aa-\	.
.	.	.	32gg\	32gg\	.
.	.	.	32ff\JJ)	32ff\JJ)	.
.	8f'\	8gg'\	8een\J	8een\J	.
.	8f'\J)	8gg'\J)	8r	8r	.
=47	=47	=47	=47	=47	=47
4.C/]	(8en'\L	(8gg'\L	(32bb-\LLL	(32bb-\LLL	.
.	.	.	32aa-\	32aa-\	.
.	.	.	32gg\	32gg\	.
.	.	.	32ff\JJ)	32ff\JJ)	.
.	8e'\	8gg'\	8een\J	8een\J	.
.	8e'\J)	8gg'\J)	8r	8r	.
*>etc3	*>etc3	*>etc3	*>etc3	*>etc3	*>etc3
=48	=48	=48	=48	=48	=48
16f\LL	8c\L	16ff\LL	16ff\LL	16ff\LL	.
16e-\	.	16ee-\	16ee-\	16ee-\	.
16d-\	16dd-\L	16dd-\	16dd-\	16dd-\	.
16c\	16cc\	16cc\	16cc\	16cc\	.
16B-\	16b-\	16b-\	16b-\	16b-\	.
16A-\JJ	16a-\JJ	16a-\JJ	16a-\JJ	16a-\JJ	.
=49	=49	=49	=49	=49	=49
16G\LL	16g\LL	16g/LL	16g/LL	16g/LL	.
16F\	16f\	16f/	16f/	16f/	.
16En\	16en\	16en/	16en/	16en/	.
16Dn\	16dn\	16d/	16dn/	16dn/	.
16C\	16c\	16c/	16c/	16c/	.
16BB-\JJ	16B-\JJ	16B-/JJ	16B-/JJ	16B-/JJ	.
=50	=50	=50	=50	=50	=50
8AA-/L	8A-/L	8A-/L	8A-/L	8A-/L	.
8BB-/	8B-/	8B-/	8B-/	8B-/	.
8C/J	8c/J	8c/J	8c/J	8c/J	.
=51	=51	=51	=51	=51	=51
4FF/	8f\L	[4.f/	[4.f/	16f'/LL	.
.	.	.	.	16g'/	.
.	8f\	.	.	16a-'/	.
.	.	.	.	16g'/	.
8r	8f\J	.	.	16a-'/	.
.	.	.	.	16f'/JJ	.
=52	=52	=52	=52	=52	=52
4.r	8e-\L	4.f_/	4.f_/	16cc\LL	.
.	.	.	.	16dd-\	.
.	8e-\	.	.	16ee-\	.
.	.	.	.	16dd-\	.
.	8e-\J	.	.	16ee-\	.
.	.	.	.	16cc\JJ	.
=53	=53	=53	=53	=53	=53
4.r	8d-\L	4.f_/	4.f_/	16ff\LL	.
.	.	.	.	16gg\	.
.	8d-\	.	.	16aa-\	.
.	.	.	.	16gg\	.
.	8d-\J	.	.	16aa-\	.
.	.	.	.	16ff\JJ	.
=54	=54	=54	=54	=54	=54
4.r	8c\L	4.f_/	4.f_/	16gg\LL	.
.	.	.	.	16aa-\	.
.	8c\	.	.	16bb-\	.
.	.	.	.	16aa-\	.
.	8c\J	.	.	16bb-\	.
.	.	.	.	16gg\JJ	.
=55	=55	=55	=55	=55	=55
4.r	8B-/L	4.f_/	4.f_/	16een\LL	.
.	.	.	.	16ff\	.
.	8B-/	.	.	16gg\	.
.	.	.	.	16ff\	.
.	8B-/J	.	.	16gg\	.
.	.	.	.	16ee\JJ	.
=56	=56	=56	=56	=56	=56
4.r	8A-/L	4.f_/	4.f_/	16ff\LL	.
.	.	.	.	16gg\	.
.	8A-/	.	.	16aa-\	.
.	.	.	.	16gg\	.
.	8A-/J	.	.	16aa-\	.
.	.	.	.	16ff\JJ	.
=57	=57	=57	=57	=57	=57
4.r	8G/L	4.f_/	4.f_/	16gg\LL	.
.	.	.	.	16aa-\	.
.	8G/	.	.	16bb-\	.
.	.	.	.	16aa-\	.
.	8G/J	.	.	16bb-\	.
.	.	.	.	16gg\JJ	.
=58	=58	=58	=58	=58	=58
4.r	8F/L	4.f_/	4.f_/	16aa-\LL	.
.	.	.	.	16bb-\	.
.	8F/	.	.	16ccc\	.
.	.	.	.	16bb-\	.
.	8F/J	.	.	16ccc\	.
.	.	.	.	16aa-\JJ	.
=59	=59	=59	=59	=59	=59
4.r	8E-/L	4.f_/	4.f_/	16gg\LL	.
.	.	.	.	16aa-\	.
.	8E-/	.	.	16bb-\	.
.	.	.	.	16aa-\	.
.	8E-/J	.	.	16bb-\	.
.	.	.	.	16gg\JJ	.
=60	=60	=60	=60	=60	=60
4.r	8D-/L	4.f/]	4.f/]	16ff\LL	.
.	.	.	.	16gg\	.
.	8D-/	.	.	16aa-\	.
.	.	.	.	16gg\	.
.	8D-/J	.	.	16aa-\	.
.	.	.	.	16ff\JJ	.
=61	=61	=61	=61	=61	=61
! Tasto solo	!	!	!	!	!
[4.C/	4C/	8en\L	8g\L	4cc\	.
.	.	8een\	8gg\	.	.
.	8r	8ee\J	8gg\J	8r	.
=62	=62	=62	=62	=62	=62
4.C_/	4.r	8ff\L	8aa-\L	16fff\LL	.
.	.	.	.	16eee-\	.
.	.	8ff\	8aa-\	16ddd-\	.
.	.	.	.	16ccc\	.
.	.	8ff\J	8aa-\J	16bb-\	.
.	.	.	.	16aa-\JJ	.
=63	=63	=63	=63	=63	=63
4.C_/	4.r	8een\L	8gg\L	16gg\LL	.
.	.	.	.	16ff\	.
.	.	8ee\	8gg\	16gg\	.
.	.	.	.	16aa-\	.
.	.	8ee\J	8gg\J	16bb-\	.
.	.	.	.	16gg\JJ	.
=64	=64	=64	=64	=64	=64
4.C_/	4.r	8ee-\L	8gg\L	16eee-\LL	.
.	.	.	.	16ddd-\	.
.	.	8ee-\	8gg\	16ccc\	.
.	.	.	.	16bb-\	.
.	.	8ee-\J	8gg\J	16aa-\	.
.	.	.	.	16gg\JJ	.
=65	=65	=65	=65	=65	=65
4.C_/	4.r	8ddn\L	8ff\L	16ff\LL	.
.	.	.	.	16een\	.
.	.	8dd\	8ff\	16ff\	.
.	.	.	.	16gg\	.
.	.	8dd\J	8ff\J	16aa-\	.
.	.	.	.	16ff\JJ	.
=66	=66	=66	=66	=66	=66
4.C_/	4.r	8dd-\L	8ff\L	16ddd-\LL	.
.	.	.	.	16ccc\	.
.	.	8dd-\	8ff\	16bb-\	.
.	.	.	.	16aa-\	.
.	.	8dd-\J	8ff\J	16gg\	.
.	.	.	.	16ff\JJ	.
=67	=67	=67	=67	=67	=67
4.C_/	4.r	8cc\L	8ee-\L	16ee-\LL	.
.	.	.	.	16ddn\	.
.	.	8cc\	8ee-\	16ee-\	.
.	.	.	.	16ff\	.
.	.	8cc\J	8ee-\J	16gg\	.
.	.	.	.	16ee-\JJ	.
=68	=68	=68	=68	=68	=68
4.C_/	4.r	8cc\L	8ee-\L	16ccc\LL	.
.	.	.	.	16bb-\	.
.	.	8cc\	8ee-\	16aa-\	.
.	.	.	.	16gg\	.
.	.	8cc\J	8ee-\J	16ff\	.
.	.	.	.	16ee-\JJ	.
=69	=69	=69	=69	=69	=69
4.C_/	4.r	8bn\L	8ddn\L	16ddn\LL	.
.	.	.	.	16cc\	.
.	.	8b\	8dd\	16dd\	.
.	.	.	.	16ee-\	.
.	.	8b\J	8dd\J	16ff\	.
.	.	.	.	16dd\JJ	.
=70	=70	=70	=70	=70	=70
4.C_/	4.r	8b-\L	8ddn\L	16bb-\LL	.
.	.	.	.	16aa-\	.
.	.	8b-\	8dd\	16gg\	.
.	.	.	.	16ff\	.
.	.	8b-\J	8dd\J	16ee-\	.
.	.	.	.	16ddn\JJ	.
=71	=71	=71	=71	=71	=71
4.C_/	4.r	8an/L	8cc\L	16cc\LL	.
.	.	.	.	16bn\	.
.	.	8a/	8cc\	16cc\	.
.	.	.	.	16ddn\	.
.	.	8a/J	8cc\J	16ee-\	.
.	.	.	.	16cc\JJ	.
=72	=72	=72	=72	=72	=72
4.C/]	4.r	8a-/L	8cc\L	16aa-\LL	.
.	.	.	.	16gg\	.
.	.	8a-/	8cc\	16ff\	.
.	.	.	.	16ee-\	.
.	.	8a-/J	8cc\J	16ddn\	.
.	.	.	.	16cc\JJ	.
=73	=73	=73	=73	=73	=73
! Tasto solo	!	!	!	!	!
[4.GG/	4r	16g/LL	16bn/LL	16bn/LL	.
.	.	16g/JJ	16g/JJ	(32ddnx/L	.
.	.	.	.	32cc/J	.
.	.	8G/	8G/	16b/)	.
.	.	.	.	16dnx/	.
.	16r	8r	8r	16G/	.
.	16g\	.	.	16b/JJ	.
=74	=74	=74	=74	=74	=74
4.GG_/	8G/	16r	16r	16cc/LL	.
.	.	16g/	16g/	(32ee-/L	.
.	.	.	.	32ddnx/J	.
.	8r	8G/	8G/	16cc/)	.
.	.	.	.	16dnx/	.
.	16r	8r	8r	16G/	.
.	16g\	.	.	16cc/JJ	.
=75	=75	=75	=75	=75	=75
4.GG_/	8G/	16r	16r	16ddnx/LL	.
.	.	16g/	16g/	(32ff/L	.
.	.	.	.	32ee-/J	.
.	8r	8G/	8G/	16ddnx/)	.
.	.	.	.	16dx/	.
.	16r	8r	8r	16G/	.
.	16g\	.	.	16ddx/JJ	.
=76	=76	=76	=76	=76	=76
4.GG_/	8G/	16r	16r	16ee-/LL	.
.	.	16g/	16g/	(32gg/L	.
.	.	.	.	32ff/J	.
.	8r	8G/	8G/	16ee-/)	.
.	.	.	.	16dnx/	.
.	16r	8r	8r	16G/	.
.	16g\	.	.	16ee-/JJ	.
=77	=77	=77	=77	=77	=77
4.GG_/	8G/	16r	16r	16ddnx/LL	.
.	.	16g/	16g/	(32ff/L	.
.	.	.	.	32ee-/J	.
.	8r	8G/	8G/	16ddx/)	.
.	.	.	.	16dnx/	.
.	16r	8r	8r	16G/	.
.	16g\	.	.	16ddx/JJ	.
=78	=78	=78	=78	=78	=78
4.GG_/	8G/	16r	16r	16bbn\LL	.
.	.	16g/	16g/	(32dddnx\L	.
.	.	.	.	32ccc\J	.
.	8r	8G/	8G/	16bb\)	.
.	.	.	.	16ff\	.
.	16r	8r	8r	16G/	.
.	16g\	.	.	16ff\JJ	.
=79	=79	=79	=79	=79	=79
4.GG_/	8G/	16r	16r	16bbn\LL	.
.	.	16g/	16g/	(32dddn\L	.
.	.	.	.	32ccc\J	.
.	8r	8G/	8G/	16bb\)	.
.	.	.	.	16ff\	.
.	16r	8r	8r	16G/	.
.	16g\	.	.	16bb\JJ	.
=80	=80	=80	=80	=80	=80
4.GG_/	8G/	4.r	4.r	(24ccc\LL	.
.	.	.	.	24bbn\	.
.	.	.	.	24ccc\JJ)	.
.	8r	.	.	(24bb\LL	.
*	*	*	*	*strophe	*
*	*	*	*	*^	*
*	*	*	*	*^	*	*
*	*	*	*	*S/S	*S/A	*S/M	*
.	.	.	.	24aan\	24aan\	24aa-\	.
*	*	*	*	*S/fin	*S/fin	*S/fin	*
*	*	*	*	*v	*v	*v	*
*	*	*	*	*S-	*
.	.	.	.	24bb\JJ)	.
.	8r	.	.	(24aa-\LL	.
.	.	.	.	24gg\	.
.	.	.	.	24aa-\JJ)	.
=81	=81	=81	=81	=81	=81
4.GG_/	4.r	4.r	4.r	(24gg\LL	.
.	.	.	.	24ff\	.
.	.	.	.	24gg\JJ)	.
.	.	.	.	(24ff\LL	.
.	.	.	.	24ee-\	.
.	.	.	.	24ff\JJ)	.
.	.	.	.	(24ee-\LL	.
*	*	*	*	*strophe	*
*	*	*	*	*^	*
*	*	*	*	*^	*	*
*	*	*	*	*S/S	*S/A	*S/M	*
.	.	.	.	24ddn\	24ddn\	24dd-\	.
*	*	*	*	*S/fin	*S/fin	*S/fin	*
*	*	*	*	*v	*v	*v	*
*	*	*	*	*S-	*
.	.	.	.	24ee-\JJ)	.
=82	=82	=82	=82	=82	=82
*	*	*	*	*strophe	*
*	*	*	*	*^	*
*	*	*	*	*^	*	*
*	*	*	*	*S/S	*S/A	*S/M	*
4.GG_/	4.r	4.r	4.r	(24ddn\LL	(24ddn\LL	(24dd-\LL	.
*	*	*	*	*S/fin	*S/fin	*S/fin	*
*	*	*	*	*v	*v	*v	*
*	*	*	*	*S-	*
.	.	.	.	24cc\	.
*	*	*	*	*strophe	*
*	*	*	*	*^	*
*	*	*	*	*^	*	*
*	*	*	*	*S/S	*S/A	*S/M	*
.	.	.	.	24dd\JJ)	24dd\JJ	24dd-\JJ	.
*	*	*	*	*S/fin	*S/fin	*S/fin	*
*	*	*	*	*v	*v	*v	*
*	*	*	*	*S-	*
.	.	.	.	(24cc\LL	.
.	.	.	.	24bn\	.
.	.	.	.	24cc\JJ)	.
.	.	.	.	(24b/LL	.
*	*	*	*	*strophe	*
*	*	*	*	*^	*
*	*	*	*	*^	*	*
*	*	*	*	*S/S	*S/A	*S/M	*
.	.	.	.	24an/	24an/	24a-/	.
*	*	*	*	*S/fin	*S/fin	*S/fin	*
*	*	*	*	*v	*v	*v	*
*	*	*	*	*S-	*
.	.	.	.	24b/JJ)	.
=83	=83	=83	=83	=83	=83
4.GG_/	4.r	4.r	4.r	(24a-/LL	.
.	.	.	.	24g/	.
.	.	.	.	24a-/JJ)	.
.	.	.	.	(24g/LL	.
.	.	.	.	24f/	.
.	.	.	.	24g/JJ)	.
.	.	.	.	(24f/LL	.
.	.	.	.	24e-/	.
.	.	.	.	24f/JJ)	.
*>S84	*>S84	*>S84	*>S84	*>S84	*>S84
!! Selfridge-Field edition.
=84	=84	=84	=84	=84	=84
4.GG_/	4.r	4.r	4.r	(24e-/LL	.
.	.	.	.	24dn/	.
.	.	.	.	24e-/JJ)	.
.	.	.	.	(24d/LL	.
.	.	.	.	24c/	.
.	.	.	.	24d/JJ)	.
.	.	.	.	(24c/LL	.
.	.	.	.	24Bn/	.
.	.	.	.	24c/JJ)	.
=85	=85	=85	=85	=85	=85
*	*	*	*	*^	*
4.GG_/	[4.B/	4.r	(16ff\LL	8G\ 8dn\ 8bn\	(16ff/LL	.
.	.	.	16ee-\	.	16ee-/	.
.	.	.	16ddn\	4r	16ddn/	.
.	.	.	16cc\	.	16cc/	.
.	.	.	16bn\	.	16bn/	.
.	.	.	16an\JJ)	.	16an/JJ)	.
*	*	*	*	*v	*v	*
*	*	*	*	*	*
!	!	!	!	!	!
!	!	!	!	!	!
*	*	*	*	*	*
=86	=86	=86	=86	=86	=86
4.GG_/	4.B_/	(16ff\LL	(16g\LL	(16g\LL	.
.	.	16ee-\	16an\	16an\	.
.	.	16ddn\	16bn\	16bn\	.
.	.	16cc\	16cc\	16cc\	.
.	.	16bn\	16ddn\	16ddn\	.
.	.	16an\JJ)	16ee-\JJ)	16ee-\JJ)	.
=87	=87	=87	=87	=87	=87
4.GG_/	4.B_/	(16g\LL	(16ff\LL	(16ff\LL	.
.	.	16an\	16ee-\	16ee-\	.
.	.	16bn\	16ddn\	16ddn\	.
.	.	16cc\	16cc\	16cc\	.
.	.	16ddn\	16bn\	16bn\	.
.	.	16ee-\JJ)	16an\JJ)	16an\JJ)	.
=88	=88	=88	=88	=88	=88
4.GG_/	4.B_/	(16ff\LL	(16g\LL	(16g\LL	.
.	.	16ee-\	16an\	16an\	.
.	.	16ddn\	16bn\	16bn\	.
.	.	16cc\	16cc\	16cc\	.
.	.	16bn\	16ddn\	16ddn\	.
.	.	16an\JJ)	16ee-\JJ)	16ee-\JJ)	.
=89	=89	=89	=89	=89	=89
8GG/]	8B/]	8g/	8ff\	8ff\	.
8r	8r	8r	8r	8r	.
32r	32r	32r	32r	32r	.
32Bn\LLL	32bn\LLL	32bn\LLL	32bn\LLL	32bn\LLL	.
32c\	32cc\	32cc\	32cc\	32cc\	.
32dn\JJJ	32ddn\JJJ	32ddn\JJJ	32ddn\JJJ	32ddn\JJJ	.
*>A84	*>A84	*>A84	*>A84	*>A84	*>A84
!! Amsterdam print.
=84	=84	=84	=84	=84	=84
4.GG]/	4.r	4.r	4.r	(24e-/LL	.
.	.	.	.	24d-/	.
.	.	.	.	24e-/JJ)	.
.	.	.	.	(24d-/LL	.
.	.	.	.	24c/	.
.	.	.	.	24d-/JJ)	.
.	.	.	.	(24c/LL	.
.	.	.	.	24Bn/	.
.	.	.	.	24c/JJ)	.
=85	=85	=85	=85	=85	=85
*	*	*	*	*^	*
4.GG/	[4.B/	4.r	(16ff\LL	8G\ 8d-\ 8bn\	(16ff/LL	.
.	.	.	16ee-\	.	16ee-/	.
.	.	.	16dd-\	4r	16dd-/	.
.	.	.	16cc\	.	16cc/	.
.	.	.	16bn\	.	16bn/	.
.	.	.	16an\JJ)	.	16an/JJ)	.
*	*	*	*	*v	*v	*
=86	=86	=86	=86	=86	=86
4.GG/	4.B_/	(16ff\LL	(16g\LL	(16g\LL	.
.	.	16ee-\	16an\	16an\	.
.	.	16ddn\	16b-\	16b-\	.
.	.	16cc\	16cc\	16cc\	.
.	.	16bn\	16ddn\	16ddn\	.
.	.	16an\JJ)	16ee-\JJ)	16ee-\JJ)	.
=87	=87	=87	=87	=87	=87
4.GG/	4.B_/	(16g\LL	(16ff\LL	(16ff\LL	.
.	.	16an\	16ee-\	16ee-\	.
.	.	16bn\	16ddn\	16ddn\	.
.	.	16cc\	16cc\	16cc\	.
.	.	16ddn\	16bn\	16bn\	.
.	.	16ee-\JJ)	16an\JJ)	16an\JJ)	.
=88	=88	=88	=88	=88	=88
4.GG/	4.B_/	(16ff\LL	(16g\LL	(16g\LL	.
.	.	16ee-\	16an\	16an\	.
.	.	16ddn\	16bn\	16bn\	.
.	.	16cc\	16cc\	16cc\	.
.	.	16bn\	16ddn\	16ddn\	.
.	.	16an\JJ)	16ee-\JJ)	16ee-\JJ)	.
=89	=89	=89	=89	=89	=89
8GG/	8B/]	8g/	8ff\	8ff\	.
8r	8r	8r	8r	8r	.
32r	32r	32r	32r	32r	.
32Bn\LLL	32bn\LLL	32bn\LLL	32bn\LLL	32bn\LLL	.
32c\	32cc\	32cc\	32cc\	32cc\	.
32dn\JJJ	32ddn\JJJ	32ddn\JJJ	32ddn\JJJ	32ddn\JJJ	.
*>etc4	*>etc4	*>etc4	*>etc4	*>etc4	*>etc4
=90	=90	=90	=90	=90	=90
8F\	8f\	8f/	8f/	8f/	.
8r	8r	8r	8r	8r	.
32r	32r	32r	32r	32r	.
32Dn\LLL	32dn\LLL	32dn/LLL	32dn/LLL	32dn/LLL	.
32E-\	32e-\	32e-/	32e-/	32e-/	.
32F\JJJ	32f\JJJ	32f/JJJ	32f/JJJ	32f/JJJ	.
=91	=91	=91	=91	=91	=91
8GG/	8G/	8G/	8G/	8G/	.
8r	8r	8r	8r	8r	.
32r	32r	32r	32r	32r	.
32BBn/LLL	32Bn\LLL	32Bn/LLL	32Bn/LLL	32Bn/LLL	.
32C/	32c\	32c/	32c/	32c/	.
32Dn/JJJ	32dn\JJJ	32dn/JJJ	32dn/JJJ	32dn/JJJ	.
=92	=92	=92	=92	=92	=92
8E-\L	8e-\L	8e-/L	8e-/L	8e-/L	.
8F\	8f\	8f/	8f/	8f/	.
8G\J	8g\J	8g/J	8g/J	8g/J	.
=93	=93	=93	=93	=93	=93
4C/	4c\	4c/	4c/	32cc/LLL	.
.	.	.	.	32g/	.
.	.	.	.	32e-/	.
.	.	.	.	32c/JJJ	.
.	.	.	.	8G/	.
8r	8r	8r	8r	8r	.
=94	=94	=94	=94	=94	=94
8GG/	4.r	4.r	4.r	32ddn/LLL	.
.	.	.	.	32bn/	.
.	.	.	.	32g/	.
.	.	.	.	32dn/JJJ	.
8r	.	.	.	8G/	.
8r	.	.	.	8r	.
=95	=95	=95	=95	=95	=95
8GG/	4.r	4.r	4.r	32ee-/LLL	.
.	.	.	.	32cc/	.
.	.	.	.	32g/	.
.	.	.	.	32e-/JJJ	.
8r	.	.	.	8G/	.
8r	.	.	.	8r	.
=96	=96	=96	=96	=96	=96
8GG/	4.r	4.r	4.r	32ff\LLL	.
.	.	.	.	32ddn\	.
.	.	.	.	32bn\	.
.	.	.	.	32g\JJJ	.
8r	.	.	.	8G/	.
8r	.	.	.	8r	.
=97	=97	=97	=97	=97	=97
8GG/	4.r	4.r	4.r	32gg\LLL	.
.	.	.	.	32ee-\	.
.	.	.	.	32cc\	.
.	.	.	.	32g\JJJ	.
8r	.	.	.	8G/	.
8r	.	.	.	8r	.
=98	=98	=98	=98	=98	=98
8e-\L	4.r	4.r	4.r	16ccc\LL	.
.	.	.	.	16bb-\	.
8c\	.	.	.	16aa-\	.
.	.	.	.	16gg\	.
8A-\J	.	.	.	16ff\	.
.	.	.	.	16ee-\JJ	.
=99	=99	=99	=99	=99	=99
8F\L	4.r	4.r	4.r	16ddn/LL	.
.	.	.	.	16cc/	.
8Dn\	.	.	.	16bn/	.
.	.	.	.	16a-/	.
8BBn\J	.	.	.	16g/	.
.	.	.	.	16f/JJ	.
=100	=100	=100	=100	=100	=100
4GG/	4.r	4.r	4.r	8G/	.
.	.	.	.	8r	.
8r	.	.	.	8r	.
=101	=101	=101	=101	=101	=101
4.r	(16c\LL	(8ee-\L	(8gg\L	(8gg\L	.
.	16dn\	.	.	.	.
.	16e-\	8ddn\	8ff\	8ff\	.
.	16f\	.	.	.	.
.	16g\	8cc\J)	8ee-\J)	8ee-\J)	.
.	16a-\JJ)	.	.	.	.
=102	=102	=102	=102	=102	=102
4.r	4b-\	(8b-\L	(8ddn\L	(8ddn\L	.
.	.	8cc\	8ee-\	8ee-\	.
.	8B-/	8ddn\J)	8ff\J)	8ff\J)	.
=103	=103	=103	=103	=103	=103
4.r	(16e-\LL	(8ee-\L	(8gg\L	(8gg\L	.
.	16f\J	.	.	.	.
.	8g\	8ddn\	8ff\	8ff\	.
.	8a-\J)	8cc\J)	8ee-\J)	8ee-\J)	.
=104	=104	=104	=104	=104	=104
4.r	4b-\	(8b-\L	(8ddn\L	(8ddn\L	.
.	.	8cc\	8ee-\	8ee-\	.
.	8B-/	8ddn\J)	8ff\J)	8ff\J)	.
=105	=105	=105	=105	=105	=105
4.r	4e-\	(8ee-\L	(8gg\L	(8gg\L	.
.	.	8ff\	8aa-\	8aa-\	.
.	8e-\	8gg\J)	8bb-\J)	8bb-\J)	.
=106	=106	=106	=106	=106	=106
4.r	8B-/	8ff\	8aa-\	8aa-\	.
!!  Sources both show a quarter note here, which disagrees with all other parts.  
.	8r	8r	8r	8r	.
.	8r	8r	8r	8r	.
=107	=107	=107	=107	=107	=107
4.r	8e-\	8ee-\	8gg\	8gg\	.
.	8r	8r	8r	8r	.
.	8r	8r	8r	8r	.
=108	=108	=108	=108	=108	=108
4.r	8B-/	8ddn\	8ff\	8ff\	.
.	8r	8r	8r	8r	.
.	8r	8r	8r	8r	.
=109	=109	=109	=109	=109	=109
4.r	8B-\L	8ff\L	8aa-\L	8aa-\L	.
.	8e-\J	8ee-\J	8gg\J	8gg\J	.
.	8r	8r	8r	8r	.
=110	=110	=110	=110	=110	=110
4.r	8e-\L	8e-/L	8g/L	8g/L	.
.	8B-\J	8dn/J	8f/J	8f/J	.
.	8r	8r	8r	8r	.
=111	=111	=111	=111	=111	=111
4.r	8e-\L	8gg\L	8bb-\L	8bb-\L	.
.	8f\J	8ff\J	8aa-\J	8aa-\J	.
.	8r	8r	8r	8r	.
=112	=112	=112	=112	=112	=112
4.r	8dn\L	8f/L	8a-/L	8a-/L	.
.	8e-\J	8e-/J	8g/J	8g/J	.
.	8r	8r	8r	8r	.
=113	=113	=113	=113	=113	=113
4.r	(8g\L	(8ee-\L	(8gg\L	(8gg\L	.
.	8f\	8ff\	8aa-\	8aa-\	.
.	8e-\J)	8gg\J)	8bb-\J)	8bb-\J)	.
=114	=114	=114	=114	=114	=114
4.r	8r	8r	8r	8r	.
.	8a-\L	(16a-\LL	(16cc\LL	(16cc\LL	.
.	.	16b-\J	16ddn\J	16ddn\J	.
.	8A-\J	8cc\J)	8ee-\J)	8ee-\J)	.
=115	=115	=115	=115	=115	=115
4.r	8r	8r	8r	8r	.
.	(8a-\L	(16ff\LL	(16aa-\LL	(16aa-\LL	.
.	.	16ee-\J	16gg\J	16gg\J	.
.	8b-\J)	8ddn\J)	8ff\J)	8ff\J)	.
=116	=116	=116	=116	=116	=116
4.r	4e-\	4ee-\	4ee-\	4ee-\	.
.	8r	8r	8r	8r	.
=117	=117	=117	=117	=117	=117
4.r	(8g\L	(8ee-\L	(8gg\L	(8gg\L	.
.	8f\	8ff\	8aa-\	8aa-\	.
.	8e-\J)	8gg\J)	8bb-\J)	8bb-\J)	.
=118	=118	=118	=118	=118	=118
4.r	8r	8r	8r	8r	.
.	8a-\L	(16a-\LL	(16cc\LL	(16cc\LL	.
.	.	16b-\J	16ddn\J	16ddn\J	.
.	8A-\J	8cc\J)	8ee-\J)	8ee-\J)	.
=119	=119	=119	=119	=119	=119
4.r	8r	8r	8r	8r	.
.	(8a-\L	(16ff\LL	(16aa-\LL	(16aa-\LL	.
*	*	*strophe	*	*	*
*	*	*^	*	*	*
*	*	*^	*	*	*	*
*	*	*S/S	*S/M	*S/A	*	*	*
.	.	16ee-\J	16ee-\J	16een\J	16gg\J	16gg\J	.
.	8b-\J)	8ddn\J)	8ddn\J)	8dd-\J	8ff\J)	8ff\J)	.
*	*	*S/fin	*S/fin	*S/fin	*	*	*
*	*	*v	*v	*v	*	*	*
*	*	*S-	*	*	*
=120	=120	=120	=120	=120	=120
4E-\	4e-\	4ee-\	4ee-\	32ee-\LLL	.
.	.	.	.	32b-\	.
.	.	.	.	32cc\	.
*	*	*	*	*strophe	*
*	*	*	*	*^	*
*	*	*	*	*^	*	*
*	*	*	*	*S/S	*S/M	*S/A	*
.	.	.	.	32ddn\JJJ	32ddn\JJJ	32dd-\JJJ	.
*	*	*	*	*S/fin	*S/fin	*S/fin	*
*	*	*	*	*v	*v	*v	*
*	*	*	*	*S-	*
.	.	.	.	32ee-\LLL	.
.	.	.	.	32ff\	.
.	.	.	.	32gg\	.
.	.	.	.	32aa-\JJJ	.
8r	8r	8r	8r	32bb-\LLL	.
.	.	.	.	32aa-\	.
.	.	.	.	32gg\	.
.	.	.	.	32ff\JJJ	.
=121	=121	=121	=121	=121	=121
4.r	4.r	4.r	4.r	32ee-\LLL	.
.	.	.	.	32ddn\	.
.	.	.	.	32cc\	.
.	.	.	.	32b-\JJJ	.
.	.	.	.	32cc/LLL	.
.	.	.	.	32b-/	.
.	.	.	.	32a-/	.
.	.	.	.	32g/JJJ	.
.	.	.	.	32a-/LLL	.
.	.	.	.	32g/	.
.	.	.	.	32f/	.
.	.	.	.	32e-/JJJ	.
=122	=122	=122	=122	=122	=122
4.r	4.r	4.r	4.r	32dn/LLL	.
.	.	.	.	32B-/	.
.	.	.	.	32c/	.
.	.	.	.	32d/JJJ	.
.	.	.	.	32e-/LLL	.
.	.	.	.	32f/	.
.	.	.	.	32g/	.
.	.	.	.	32a-/JJJ	.
.	.	.	.	32b-/LLL	.
.	.	.	.	32a-/	.
.	.	.	.	32g/	.
.	.	.	.	32f/JJJ	.
=123	=123	=123	=123	=123	=123
4.r	4.r	4.r	4.r	32g/LLL	.
.	.	.	.	32e-/	.
.	.	.	.	32f/	.
.	.	.	.	32g/JJJ	.
.	.	.	.	32a-\LLL	.
.	.	.	.	32b-\	.
.	.	.	.	32cc\	.
.	.	.	.	32ddn\JJJ	.
.	.	.	.	32ee-\LLL	.
.	.	.	.	32ff\	.
.	.	.	.	32gg\	.
.	.	.	.	32aa-\JJJ	.
=124	=124	=124	=124	=124	=124
32BB-/LLL	32b-\LLL	32dd-\LLL	32ff\LLL	32ff\LLL	.
32BB-/	32b-\	32dd-\	32ff\	32ff\	.
32BB-/	32b-\	32dd-\	32ff\	32ff\	.
32BB-/JJJ	32b-\JJJ	32dd-\JJJ	32ff\JJJ	32ff\JJJ	.
32BB-/LLL	32b-\LLL	32dd-\LLL	32ff\LLL	32ff\LLL	.
32BB-/	32b-\	32dd-\	32ff\	32ff\	.
32BB-/	32b-\	32dd-\	32ff\	32ff\	.
32BB-/JJJ	32b-\JJJ	32dd-\JJJ	32ff\JJJ	32ff\JJJ	.
32BB-/LLL	32b-\LLL	32dd-\LLL	32ff\LLL	32ff\LLL	.
32BB-/	32b-\	32dd-\	32ff\	32ff\	.
32BB-/	32b-\	32dd-\	32ff\	32ff\	.
32BB-/JJJ	32b-\JJJ	32dd-\JJJ	32ff\JJJ	32ff\JJJ	.
=125	=125	=125	=125	=125	=125
4C/	4b-\	4g/	4een\	32een\LLL	n
.	.	.	.	32ff\	.
.	.	.	.	32gg\	.
.	.	.	.	32ff\JJJ	.
.	.	.	.	32ee\LLL	.
.	.	.	.	32ff\	.
.	.	.	.	32ee\	.
.	.	.	.	32ddn\JJJ	.
8r	8r	8r	8r	32cc\LLL	.
.	.	.	.	32dd\	.
.	.	.	.	32cc\	.
.	.	.	.	32bn\JJJ	.
=126	=126	=126	=126	=126	=126
4.r	4.r	4.r	4.r	32cc\LLL	.
.	.	.	.	32bn\	.
.	.	.	.	32cc\	.
.	.	.	.	32ddn\JJJ	.
.	.	.	.	32een\LLL	.
.	.	.	.	32dd\	.
.	.	.	.	32ee\	.
.	.	.	.	32ff\JJJ	.
.	.	.	.	32gg\LLL	.
.	.	.	.	32aa-\	.
.	.	.	.	32bb-\	.
.	.	.	.	32gg\JJJ	.
=127	=127	=127	=127	=127	=127
32F\LLL	32cc\LLL	32ff\LLL	32aa-\LLL	32aa-\LLL	.
32F\	32cc\	32ff\	32aa-\	32aa-\	.
32F\	32cc\	32ff\	32aa-\	32aa-\	.
32F\JJJ	32cc\JJJ	32ff\JJJ	32aa-\JJJ	32aa-\JJJ	.
32F\LLL	32cc\LLL	32ff\LLL	32aa-\LLL	32aa-\LLL	.
32F\	32cc\	32ff\	32aa-\	32aa-\	.
32F\	32cc\	32ff\	32aa-\	32aa-\	.
32F\JJJ	32cc\JJJ	32ff\JJJ	32aa-\JJJ	32aa-\JJJ	.
32F\LLL	32cc\LLL	32ff\LLL	32aa-\LLL	32aa-\LLL	.
32F\	32cc\	32ff\	32aa-\	32aa-\	.
32F\	32cc\	32ff\	32aa-\	32aa-\	.
32F\JJJ	32cc\JJJ	32ff\JJJ	32aa-\JJJ	32aa-\JJJ	.
=128	=128	=128	=128	=128	=128
4F\	4cc\	4ff\	4aa-\	32aa-\LLL	.
.	.	.	.	32bb-\	.
.	.	.	.	32ccc\	.
.	.	.	.	32bb-\JJJ	.
.	.	.	.	32aa-\LLL	.
.	.	.	.	32bb-\	.
.	.	.	.	32aa-\	.
.	.	.	.	32gg\JJJ	.
8r	8r	8r	8r	32ff\LLL	.
.	.	.	.	32gg\	.
.	.	.	.	32ff\	.
.	.	.	.	32ee-\JJJ	.
=129	=129	=129	=129	=129	=129
32BB-/LLL	32b-\LLL	32dd-\LLL	32ff\LLL	32dd-\LLL	.
32BB-/	32b-\	32dd-\	32ff\	32dd-\	.
32BB-/	32b-\	32dd-\	32ff\	32dd-\	.
32BB-/JJJ	32b-\JJJ	32dd-\JJJ	32ff\JJJ	32dd-\JJJ	.
32BB-/LLL	32b-\LLL	32dd-\LLL	32ff\LLL	32dd-\LLL	.
32BB-/	32b-\	32dd-\	32ff\	32dd-\	.
32BB-/	32b-\	32dd-\	32ff\	32dd-\	.
32BB-/JJJ	32b-\JJJ	32dd-\JJJ	32ff\JJJ	32dd-\JJJ	.
32BB-/LLL	32b-\LLL	32dd-\LLL	32ff\LLL	32dd-\LLL	.
32BB-/	32b-\	32dd-\	32ff\	32dd-\	.
32BB-/	32b-\	32dd-\	32ff\	32dd-\	.
32BB-/JJJ	32b-\JJJ	32dd-\JJJ	32ff\JJJ	32dd-\JJJ	.
=130	=130	=130	=130	=130	=130
4BB-/	4g\	4dd-\	4gg\	32bb-\LLL	6
.	.	.	.	32ccc\	.
.	.	.	.	32ddd-\	.
.	.	.	.	32ccc\JJJ	.
.	.	.	.	32bb-\LLL	.
.	.	.	.	32ccc\	.
.	.	.	.	32bb-\	.
.	.	.	.	32aa-\JJJ	.
8r	8r	8r	8r	32gg\LLL	.
.	.	.	.	32aa-\	.
.	.	.	.	32gg\	.
.	.	.	.	32ff\JJJ	.
=131	=131	=131	=131	=131	=131
32C/LLL	32cc\LLL	32ee-\LLL	32gg\LLL	32ee-\LLL	.
32C/	32cc\	32ee-\	32gg\	32ee-\	.
32C/	32cc\	32ee-\	32gg\	32ee-\	.
32C/JJJ	32cc\JJJ	32ee-\JJJ	32gg\JJJ	32ee-\JJJ	.
32C/LLL	32cc\LLL	32ee-\LLL	32gg\LLL	32ee-\LLL	.
32C/	32cc\	32ee-\	32gg\	32ee-\	.
32C/	32cc\	32ee-\	32gg\	32ee-\	.
32C/JJJ	32cc\JJJ	32ee-\JJJ	32gg\JJJ	32ee-\JJJ	.
32C/LLL	32cc\LLL	32ee-\LLL	32gg\LLL	32ee-\LLL	.
32C/	32cc\	32ee-\	32gg\	32ee-\	.
32C/	32cc\	32ee-\	32gg\	32ee-\	.
32C/JJJ	32cc\JJJ	32ee-\JJJ	32gg\JJJ	32ee-\JJJ	.
=132	=132	=132	=132	=132	=132
4C/	4a-\	4ee-\	4aa-\	32ccc\LLL	6
.	.	.	.	32ddd-\	.
.	.	.	.	32eee-\	.
.	.	.	.	32ddd-\JJJ	.
.	.	.	.	32ccc\LLL	.
.	.	.	.	32ddd-\	.
.	.	.	.	32ccc\	.
.	.	.	.	32bb-\JJJ	.
8r	8r	8r	8r	32aa-\LLL	.
.	.	.	.	32bb-\	.
.	.	.	.	32aa-\	.
.	.	.	.	32gg\JJJ	.
=133	=133	=133	=133	=133	=133
32D-\LLL	32dd-\LLL	32ff\LLL	32aa-\LLL	32ff\LLL	.
32D-\	32dd-\	32ff\	32aa-\	32ff\	.
32D-\	32dd-\	32ff\	32aa-\	32ff\	.
32D-\JJJ	32dd-\JJJ	32ff\JJJ	32aa-\JJJ	32ff\JJJ	.
32D-\LLL	32dd-\LLL	32ff\LLL	32aa-\LLL	32ff\LLL	.
32D-\	32dd-\	32ff\	32aa-\	32ff\	.
32D-\	32dd-\	32ff\	32aa-\	32ff\	.
32D-\JJJ	32dd-\JJJ	32ff\JJJ	32aa-\JJJ	32ff\JJJ	.
32D-\LLL	32dd-\LLL	32ff\LLL	32aa-\LLL	32ff\LLL	.
32D-\	32dd-\	32ff\	32aa-\	32ff\	.
32D-\	32dd-\	32ff\	32aa-\	32ff\	.
32D-\JJJ	32dd-\JJJ	32ff\JJJ	32aa-\JJJ	32ff\JJJ	.
=134	=134	=134	=134	=134	=134
4D-\	4b-\	4ff\	4bb-\	32ddd-\LLL	6
.	.	.	.	32eee-\	.
.	.	.	.	32fff\	.
.	.	.	.	32eee-\JJJ	.
.	.	.	.	32ddd-\LLL	.
.	.	.	.	32eee-\	.
.	.	.	.	32ddd-\	.
.	.	.	.	32ccc\JJJ	.
8r	8r	8r	8r	32bb-\LLL	.
.	.	.	.	32ccc\	.
.	.	.	.	32bb-\	.
.	.	.	.	32aa-\JJJ	.
=135	=135	=135	=135	=135	=135
32En\LLL	32g\LLL	32gg\LLL	32bb-\LLL	32gg\LLL	.
32E\	32g\	32gg\	32bb-\	32gg\	.
32E\	32g\	32gg\	32bb-\	32gg\	.
32E\JJJ	32g\JJJ	32gg\JJJ	32bb-\JJJ	32gg\JJJ	.
32E\LLL	32g\LLL	32gg\LLL	32bb-\LLL	32gg\LLL	.
32E\	32g\	32gg\	32bb-\	32gg\	.
32E\	32g\	32gg\	32bb-\	32gg\	.
32E\JJJ	32g\JJJ	32gg\JJJ	32bb-\JJJ	32gg\JJJ	.
32E\LLL	32en\LLL	32gg\LLL	32bb-\LLL	32gg\LLL	.
32E\	32e\	32gg\	32bb-\	32gg\	.
32E\	32e\	32gg\	32bb-\	32gg\	.
32E\JJJ	32e\JJJ	32gg\JJJ	32bb-\JJJ	32gg\JJJ	.
=136	=136	=136	=136	=136	=136
4C/	4en\	4gg\	4bb-\	32eeen\LLL	7 n
.	.	.	.	32fff\	.
.	.	.	.	32ggg\	.
.	.	.	.	32fff\JJJ	.
.	.	.	.	32eee\LLL	.
.	.	.	.	32fff\	.
.	.	.	.	32ggg\	.
.	.	.	.	32fff\JJJ	.
8r	8r	8r	8r	32eee\LLL	.
*	*	*	*	*strophe	*
*	*	*	*	*^	*
*	*	*	*	*^	*	*
*	*	*	*	*S/S	*S/M	*S/A	*
.	.	.	.	32ddd-\	32ddd-\	32dddn\	.
*	*	*	*	*S/fin	*S/fin	*S/fin	*
*	*	*	*	*v	*v	*v	*
*	*	*	*	*S-	*
.	.	.	.	32ccc\	.
.	.	.	.	32bb-\JJJ	.
=137	=137	=137	=137	=137	=137
32F\LLL	32cc\LLL	32aa-\LLL	32aa-\LLL	32aa-\LLL	.
32F\	32cc\	32aa-\	32aa-\	32aa-\	.
32F\	32cc\	32aa-\	32aa-\	32aa-\	.
32F\JJJ	32cc\JJJ	32aa-\JJJ	32aa-\JJJ	32aa-\JJJ	.
32F\LLL	32cc\LLL	32aa-\LLL	32aa-\LLL	32aa-\LLL	.
32F\	32cc\	32aa-\	32aa-\	32aa-\	.
32F\	32cc\	32aa-\	32aa-\	32aa-\	.
32F\JJJ	32cc\JJJ	32aa-\JJJ	32aa-\JJJ	32aa-\JJJ	.
32F\LLL	32cc\LLL	32aa-\LLL	32aa-\LLL	32aa-\LLL	.
32F\	32cc\	32aa-\	32aa-\	32aa-\	.
32F\	32cc\	32aa-\	32aa-\	32aa-\	.
32F\JJJ	32cc\JJJ	32aa-\JJJ	32aa-\JJJ	32aa-\JJJ	.
*>S138	*>S138	*>S138	*>S138	*>S138	*>S138
!! Selfridge-Field edition.
=138	=138	=138	=138	=138	=138
4F\	4cc\	4aa-\	4aa-\	32aa-\LLL	.
.	.	.	.	32bb-\	.
.	.	.	.	32aa-\	.
.	.	.	.	32gg\JJJ	.
.	.	.	.	32ff\LLL	.
.	.	.	.	32gg\	.
.	.	.	.	32ff\	.
.	.	.	.	32ee-\JJJ	.
8r	8r	8r	8r	32dd-\LLL	.
.	.	.	.	32ee-\	.
.	.	.	.	32dd-\	.
.	.	.	.	32cc\JJJ	.
=139	=139	=139	=139	=139	=139
4.r	4.r	4.r	4.r	32b-\LLL	.
.	.	.	.	32cc\	.
.	.	.	.	32b-\	.
.	.	.	.	32a-\JJJ	.
.	.	.	.	32g/LLL	.
.	.	.	.	32a-/	.
.	.	.	.	32g/	.
.	.	.	.	32f/JJJ	.
.	.	.	.	32en/LLL	.
.	.	.	.	32f/	.
.	.	.	.	32e/	.
.	.	.	.	32dn/JJJ	.
*>A138	*>A138	*>A138	*>A138	*>A138	*>A138
!! Amsterdam print.
=138	=138	=138	=138	=138	=138
4F\	4cc\	32aa-\LLL	32aa-\LLL	32aa-\LLL	.
.	.	32bb-\	32bb-\	32bb-\	.
.	.	32aa-\	32aa-\	32aa-\	.
.	.	32gg\JJJ	32gg\JJJ	32gg\JJJ	.
.	.	32ff\LLL	32ff\LLL	32ff\LLL	.
.	.	32gg\	32gg\	32gg\	.
.	.	32ff\	32ff\	32ff\	.
.	.	32ee-\JJJ	32ee-\JJJ	32ee-\JJJ	.
8r	8r	8r	8r	32dd-\LLL	.
.	.	32ee-\	32ee-\	32ee-\	.
.	.	32dd-\	32dd-\	32dd-\	.
.	.	32cc\JJJ	32cc\JJJ	32cc\JJJ	.
=139	=139	=139	=139	=139	=139
4.r	4.r	32b-\LLL	32b-\LLL	32b-\LLL	.
.	.	32cc\	32cc\	32cc\	.
.	.	32b-\	32b-\	32b-\	.
.	.	32a-\JJJ	32a-\JJJ	32a-\JJJ	.
.	.	32g\LLL	32g\LLL	32g/LLL	.
.	.	32a-/	32a-/	32a-/	.
.	.	32g/	32g/	32g/	.
.	.	32f\JJJ	32f\JJJ	32f/JJJ	.
.	.	32en\LLL	32en\LLL	32en/LLL	.
.	.	32f/	32f/	32f/	.
.	.	32e/	32e/	32e/	.
.	.	32dn\JJJ	32dn\JJJ	32dn/JJJ	.
*>etc5	*>etc5	*>etc5	*>etc5	*>etc5	*>etc5
=140	=140	=140	=140	=140	=140
32C/LLL	32c\LLL	32c/LLL	32c/LLL	32c/LLL	.
32C/	32c\	32c/	32c/	32c/	.
32C/	32c\	32c/	32c/	32c/	.
32C/JJJ	32c\JJJ	32c/JJJ	32c/JJJ	32c/JJJ	.
32C/LLL	32c\LLL	32c/LLL	32c/LLL	32c/LLL	.
32C/	32c\	32c/	32c/	32c/	.
32C/	32c\	32c/	32c/	32c/	.
32C/JJJ	32c\JJJ	32c/JJJ	32c/JJJ	32c/JJJ	.
32C/LLL	32c\LLL	32c/LLL	32c/LLL	32c/LLL	.
32C/	32c\	32c/	32c/	32c/	.
32C/	32c\	32c/	32c/	32c/	.
32C/JJJ	32c\JJJ	32c/JJJ	32c/JJJ	32c/JJJ	.
=141	=141	=141	=141	=141	=141
32BB-/LLL	32B-/LLL	32B-/LLL	32B-/LLL	32B-/LLL	.
32BB-/	32B-/	32B-/	32B-/	32B-/	.
32BB-/	32B-/	32B-/	32B-/	32B-/	.
32BB-/JJJ	32B-/JJJ	32B-/JJJ	32B-/JJJ	32B-/JJJ	.
32BB-/LLL	32B-/LLL	32B-/LLL	32B-/LLL	32B-/LLL	.
32BB-/	32B-/	32B-/	32B-/	32B-/	.
32BB-/	32B-/	32B-/	32B-/	32B-/	.
32BB-/JJJ	32B-/JJJ	32B-/JJJ	32B-/JJJ	32B-/JJJ	.
32BB-/LLL	32B-/LLL	32B-/LLL	32B-/LLL	32B-/LLL	.
32BB-/	32B-/	32B-/	32B-/	32B-/	.
32BB-/	32B-/	32B-/	32B-/	32B-/	.
32BB-/JJJ	32B-/JJJ	32B-/JJJ	32B-/JJJ	32B-/JJJ	.
=142	=142	=142	=142	=142	=142
32AA-/LLL	32c\LLL	32A-/LLL	32A-/LLL	32A-/LLL	.
32FF/	32c\	32f/	32f/	32f/	.
32FF/	32c\	32f/	32f/	32f/	.
32FF/JJJ	32c\JJJ	32f/JJJ	32f/JJJ	32f/JJJ	.
32FF/LLL	32c\LLL	32A-/LLL	32A-/LLL	32A-/LLL	.
32FF/	32c\	32f/	32f/	32f/	.
32FF/	32c\	32f/	32f/	32f/	.
32FF/JJJ	32c\JJJ	32f/JJJ	32f/JJJ	32f/JJJ	.
32FF/LLL	32c\LLL	32A-/LLL	32A-/LLL	32A-/LLL	.
32FF/	32c\	32f/	32f/	32f/	.
32FF/	32c\	32f/	32f/	32f/	.
32FF/JJJ	32c\JJJ	32f/JJJ	32f/JJJ	32f/JJJ	.
=143	=143	=143	=143	=143	=143
32CC/LLL	32c\LLL	32G/LLL	32G/LLL	32G/LLL	5 4
32CC/	32c\	32f/	32f/	32f/	.
32CC/	32c\	32f/	32f/	32f/	.
32CC/JJJ	32c\JJJ	32f/JJJ	32f/JJJ	32f/JJJ	.
32CC/LLL	32c\LLL	32G/LLL	32G/LLL	32G/LLL	.
32CC/	32c\	32f/	32f/	32f/	.
32CC/	32c\	32f/	32f/	32f/	.
32CC/JJJ	32c\JJJ	32f/JJJ	32f/JJJ	32f/JJJ	.
32CC/LLL	32c\LLL	32G/LLL	32G/LLL	32G/LLL	.
32CC/	32c\	32f/	32f/	32f/	.
32CC/	32c\	32f/	32f/	32f/	.
32CC/JJJ	32c\JJJ	32f/JJJ	32f/JJJ	32f/JJJ	.
=144	=144	=144	=144	=144	=144
32CC/LLL	32c\LLL	32G/LLL	32G/LLL	32G/LLL	n
32CC/	32c\	32en/	32en/	32en/	.
32CC/	32c\	32e/	32e/	32e/	.
32CC/JJJ	32c\JJJ	32e/JJJ	32e/JJJ	32e/JJJ	.
32CC/LLL	32c\LLL	32G/LLL	32G/LLL	32G/LLL	.
32CC/	32c\	32e/	32e/	32e/	.
32CC/	32c\	32e/	32e/	32e/	.
32CC/JJJ	32c\JJJ	32e/JJJ	32e/JJJ	32e/JJJ	.
32CC/LLL	32c\LLL	32G/LLL	32G/LLL	32G/LLL	.
32CC/	32c\	32e/	32e/	32e/	.
32CC/	32c\	32e/	32e/	32e/	.
32CC/JJJ	32c\JJJ	32e/JJJ	32e/JJJ	32e/JJJ	.
=145	=145	=145	=145	=145	=145
32FF/LLL	32A-/LLL	32f/LLL	32f/LLL	32f/LLL	.
32FF/	32A-/	32f/	32f/	32f/	.
32FF/	32A-/	32f/	32f/	32f/	.
32FF/JJJ	32A-/JJJ	32f/JJJ	32f/JJJ	32f/JJJ	.
32FF/LLL	32c\LLL	32a-/LLL	32a-/LLL	32a-/LLL	.
32FF/	32c\	32a-/	32a-/	32a-/	.
32FF/	32c\	32a-/	32a-/	32a-/	.
32FF/JJJ	32c\JJJ	32a-/JJJ	32a-/JJJ	32a-/JJJ	.
32FF/LLL	32f\LLL	32cc\LLL	32cc\LLL	32cc\LLL	.
32FF/	32f\	32cc\	32cc\	32cc\	.
32FF/	32f\	32cc\	32cc\	32cc\	.
32FF/JJJ	32f\JJJ	32cc\JJJ	32cc\JJJ	32cc\JJJ	.
*>S146	*>S146	*>S146	*>S146	*>S146	*>S146
!! Selfridge-Field edition.
=146	=146	=146	=146	=146	=146
4FF/	4c\	4a-/	4a-/	32aa-\LLL	.
.	.	.	.	32bb-\	.
.	.	.	.	32aa-\	.
.	.	.	.	32gg\JJJ	.
.	.	.	.	32ff\LLL	.
.	.	.	.	32gg\	.
.	.	.	.	32ff\	.
.	.	.	.	32ee-\JJJ	.
8r	8r	8r	8r	32dd-\LLL	.
.	.	.	.	32ee-\	.
.	.	.	.	32dd-\	.
.	.	.	.	32cc\JJJ	.
=147	=147	=147	=147	=147	=147
4.r	4.r	4.r	4.r	32b-\LLL	.
.	.	.	.	32cc\	.
.	.	.	.	32b-\	.
.	.	.	.	32a-\JJJ	.
.	.	.	.	32g/LLL	.
.	.	.	.	32a-/	.
.	.	.	.	32g/	.
.	.	.	.	32f/JJJ	.
.	.	.	.	32en/LLL	.
.	.	.	.	32f/	.
.	.	.	.	32e/	.
.	.	.	.	32dn/JJJ	.
*>A146	*>A146	*>A146	*>A146	*>A146	*>A146
!! Amsterdam print.
=146	=146	=146	=146	=146	=146
4FF/	4c\	32aa-\LLL	32aa-\LLL	32aa-\LLL	.
.	.	32bb-\	32bb-\	32bb-\	.
.	.	32aa-\	32aa-\	32aa-\	.
.	.	32gg\JJJ	32gg\JJJ	32gg\JJJ	.
.	.	32ff-\LLL	32ff-\LLL	32ff\LLL	.
.	.	32gg\	32gg\	32gg\	.
.	.	32ff\	32ff\	32ff\	.
.	.	32ee-\JJJ	32ee-\JJJ	32ee-\JJJ	.
8r	8r	32dd-\LLL	32dd-\LLL	32dd-\LLL	.
.	.	32ee-\	32ee-\	32ee-\	.
.	.	32dd-\	32dd-\	32dd-\	.
.	.	32cc\JJJ	32cc\JJJ	32cc\JJJ	.
=147	=147	=147	=147	=147	=147
4.r	4.r	32b-\LLL	32b-\LLL	32b-\LLL	.
.	.	32cc\	32cc\	32cc\	.
.	.	32b-\	32b-\	32b-\	.
.	.	32b-\JJJ	32b-\JJJ	32a-\JJJ	.
.	.	32g/LLL	32g/LLL	32g/LLL	.
.	.	32a-/	32a-/	32a-/	.
.	.	32g/	32g/	32g/	.
.	.	32f/JJJ	32f/JJJ	32f/JJJ	.
.	.	32en/LLL	32en/LLL	32en/LLL	.
.	.	32f/	32f/	32f/	.
.	.	32e/	32e/	32e/	.
.	.	32dn/JJJ	32dn/JJJ	32dn/JJJ	.
*>etc6	*>etc6	*>etc6	*>etc6	*>etc6	*>etc6
=148	=148	=148	=148	=148	=148
32C/LLL	32c\LLL	32c/LLL	32c/LLL	32c/LLL	.
32C/	32c\	32c/	32c/	32c/	.
32C/	32c\	32c/	32c/	32c/	.
32C/JJJ	32c\JJJ	32c/JJJ	32c/JJJ	32c/JJJ	.
32C/LLL	32c\LLL	32c/LLL	32c/LLL	32c/LLL	.
32C/	32c\	32c/	32c/	32c/	.
32C/	32c\	32c/	32c/	32c/	.
32C/JJJ	32c\JJJ	32c/JJJ	32c/JJJ	32c/JJJ	.
32C/LLL	32c\LLL	32c/LLL	32c/LLL	32c/LLL	.
32C/	32c\	32c/	32c/	32c/	.
32C/	32c\	32c/	32c/	32c/	.
32C/JJJ	32c\JJJ	32c/JJJ	32c/JJJ	32c/JJJ	.
=149	=149	=149	=149	=149	=149
32BB-/LLL	32B-/LLL	32B-/LLL	32B-/LLL	32B-/LLL	.
32BB-/	32B-/	32B-/	32B-/	32B-/	.
32BB-/	32B-/	32B-/	32B-/	32B-/	.
32BB-/JJJ	32B-/JJJ	32B-/JJJ	32B-/JJJ	32B-/JJJ	.
32BB-/LLL	32B-/LLL	32B-/LLL	32B-/LLL	32B-/LLL	.
32BB-/	32B-/	32B-/	32B-/	32B-/	.
32BB-/	32B-/	32B-/	32B-/	32B-/	.
32BB-/JJJ	32B-/JJJ	32B-/JJJ	32B-/JJJ	32B-/JJJ	.
32BB-/LLL	32B-/LLL	32B-/LLL	32B-/LLL	32B-/LLL	.
32BB-/	32B-/	32B-/	32B-/	32B-/	.
32BB-/	32B-/	32B-/	32B-/	32B-/	.
32BB-/JJJ	32B-/JJJ	32B-/JJJ	32B-/JJJ	32B-/JJJ	.
=150	=150	=150	=150	=150	=150
32AA-/LLL	32c\LLL	32A-/LLL	32A-/LLL	32A-/LLL	.
32FF/	32c\	32f/	32f/	32f/	.
32FF/	32c\	32f/	32f/	32f/	.
32FF/JJJ	32c\JJJ	32f/JJJ	32f/JJJ	32f/JJJ	.
32FF/LLL	32c\LLL	32A-/LLL	32A-/LLL	32A-/LLL	.
32FF/	32c\	32f/	32f/	32f/	.
32FF/	32c\	32f/	32f/	32f/	.
32FF/JJJ	32c\JJJ	32f/JJJ	32f/JJJ	32f/JJJ	.
32FF/LLL	32c\LLL	32A-/LLL	32A-/LLL	32A-/LLL	.
32FF/	32c\	32f/	32f/	32f/	.
32FF/	32c\	32f/	32f/	32f/	.
32FF/JJJ	32c\JJJ	32f/JJJ	32f/JJJ	32f/JJJ	.
=151	=151	=151	=151	=151	=151
32CC/LLL	32c\LLL	32G/LLL	32G/LLL	32G/LLL	5 4
32CC/	32c\	32f/	32f/	32f/	.
32CC/	32c\	32f/	32f/	32f/	.
32CC/JJJ	32c\JJJ	32f/JJJ	32f/JJJ	32f/JJJ	.
32CC/LLL	32c\LLL	32G/LLL	32G/LLL	32G/LLL	.
32CC/	32c\	32f/	32f/	32f/	.
32CC/	32c\	32f/	32f/	32f/	.
32CC/JJJ	32c\JJJ	32f/JJJ	32f/JJJ	32f/JJJ	.
32CC/LLL	32c\LLL	32G/LLL	32G/LLL	32G/LLL	.
32CC/	32c\	32f/	32f/	32f/	.
32CC/	32c\	32f/	32f/	32f/	.
32CC/JJJ	32c\JJJ	32f/JJJ	32f/JJJ	32f/JJJ	.
=152	=152	=152	=152	=152	=152
32CC/LLL	32c\LLL	32G/LLL	32G/LLL	32G/LLL	n
32CC/	32c\	32en/	32en/	32en/	.
32CC/	32c\	32e/	32e/	32e/	.
32CC/JJJ	32c\JJJ	32e/JJJ	32e/JJJ	32e/JJJ	.
32CC/LLL	32c\LLL	32G/LLL	32G/LLL	32G/LLL	.
32CC/	32c\	32e/	32e/	32e/	.
32CC/	32c\	32e/	32e/	32e/	.
32CC/JJJ	32c\JJJ	32e/JJJ	32e/JJJ	32e/JJJ	.
32CC/LLL	32c\LLL	32G/LLL	32G/LLL	32G/LLL	.
32CC/	32c\	32e/	32e/	32e/	.
32CC/	32c\	32e/	32e/	32e/	.
32CC/JJJ	32c\JJJ	32e/JJJ	32e/JJJ	32e/JJJ	.
=153	=153	=153	=153	=153	=153
4.FF;/	4.A-;/	4.f;/	4.f;/	4.f;/	.
==|!	==|!	==|!	==|!	==|!	==|!
*-	*-	*-	*-	*-	*-
!!!CDT: 1678/3/4/-1741/7/28
!!!OCY: Italia
!!!ODE: Count Wenzeslaus von Morzin of Bohemia; Count Wenceslas of Morzin
!!!ODT: 1725///
!!!OPC: Venezia; Venice
!!!AGN: concerto
!!!AST: baroque
!!!AMT: simple triple
!!!PPR: Michel-Charles Le Ce`ne
!!!PC#: Le Cene No. 520
!!!PDT: 1725///
!!!PPP: Amsterdam
!!!SCT: RV 297
!!!SMA1: The cooperation of the following libraries is gratefully acknowledged:
!!!SMA2: Saechsische Landesbibliothek, Dresden; Biblioteca Nazionale
!!!SMA3: Universitaria, Turin; Henry Watson Music Library, Manchester.
!!!YOR: New York: Dover Publications, Inc. 1995
!!!AIN: cello cemba viola violn
!!!EEV: 1.0
!!!RDT: 1994/4/9/
!!!YER: 1996/10/31/
!!!YEP: Center for Computer Assisted Research in the Humanities
!!!YEN: United States of America
!!!EFL: 3/3
!!!ENC: Edmund Correia, Jr.
!!!EED: Eleanor Selfridge-Field
